X: 161
T:Larmor Plage
M:4/4
L:1/8
F:http://blackrosetheband.googlepages.com/ABCTUNES.ABC May 2009
S:Deanta
K:Gm
B,3G, A,B,CA,|B,DCF DFGA|BAGA Bcdg|bgfa g3a|
bg (3ggg fd (3ddd|cAdA cfdc|BG (3GGG FDCD|1 FdcA GEDC:|2 FdcA G4||
gfga gd (3ddd|gbaf gfdc|BG (3GGG FGAc|dAcA GFDF|
GD (3DDD B2 (3BBB|cBGF GABc|dg (3gag bgdc|1 BdAF GABd:|2 BdAF GDA,C||

